X:0656
M:6/8
L:1/8
Q:3/8=76
K:G 
(B//c//d3/G) (c//d//e3/G)|(B//c//d3/G) B2G |(B//c//d3/G) (c//d//e3/G)| dBG           A2G |
(B//c//d3/G) (c//d//e3/G)|(d<B)g       B2G | A3           c>de       | dBG          TA2G:|
 GTB2         GB2        | GTB2       TB2G | GTB2         GTB2       | G/B/gB       TA2G |
 GTB2         GB2        | GTB2       TB2G | A3           c/B/c/d/e  | dBG          TA2G:|
 gdd          gee        | gdd        TB2G | gdd          gee        | dBG          TA2G |
 gdd          gee        | gdd         B>AG| A3           efg        | e/d/c/B/A/G/ TA2G:|

